X:1
T:Title
%%score { 1 | 2 }
L:1/8
M:6/8
K:Eb
V:1 treble nm="Grand Piano"
V:2 bass 
V:1
 z3 z2[Q:1/4=90] [EG] | [GB]2 [GB] [GB]>[Ac][GB] | [EG]2 [DF] E2 G | [DF]2 [EG] [FA]2 [Ac] | %4
[M:5/8] [GB]2 [FA] [EG]2 |[M:1/8] [EG] |[M:3/4] [GB]2 [GB][GB]- [GB]/[Ac]/[GB] | %7
 [EG]2 [DF] E2 [Ec] | [EB]2 [CEA] [B,DG]2 [A,DF] |[M:5/8] [G,B,E]-[G,B,E]- [G,B,E]3 | %10
[M:1/8] [EGB] |[M:3/4] [Ge]2 [Ge]c- c/d/e | [Ge]3 [GB]2 [EG] | [DF]2 [EG] [FA]2 [FB] | %14
[M:5/8] [EG]-[EG]- [EG]3 |[M:1/8] [GB] |[M:3/4] [Ge]2 [Ge]c- c/d/e | [Ge]3 [GB]2 c | B2 A G2 [DF] | %19
[M:5/8] [B,E]-[B,E]- [B,E]3 |] %20
V:2
 z3 z2 [E,B,] | [E,E]2 [E,E] [E,E]>[E,E][E,E] | [E,B,]2 [B,,A,] [E,G,]2 [E,B,E] | %3
 [B,,B,]2 [B,,B,] [B,,B,]2 [B,,B,] |[M:5/8] [E,B,]2 [E,B,] [E,B,]2 |[M:1/8] [E,B,] | %6
[M:3/4] [E,E]2 [E,E][E,E]- [E,E]/[E,E]/[E,E] | [E,B,]2 [B,,A,] [C,G,]2 [A,,A,] | %8
 [B,,G,]2 B,, B,,2 B,, |[M:5/8] E,-E,- E,3 |[M:1/8] E, | %11
[M:3/4] [E,B,]2 [E,B,][K:treble][A,A]- [A,A]/[A,B,A]/[A,CA] | [E,B,]3 [E,E]2 [E,B,] | %13
 [B,,B,]2 [B,,B,] [B,,B,]2 [D,B,] |[M:5/8] [E,B,]-[E,B,]- [E,B,]3 |[M:1/8] [E,E] | %16
[M:3/4] [E,B,]2 [E,B,][K:treble][A,A]- [A,A]/[A,B,A]/[A,CA] | [E,B,]3 [E,E]2[K:treble] [A,E] | %18
 [G,B,E]2 [A,CF][K:bass] [B,E]2 [B,,A,] |[M:5/8] [E,G,]-[E,G,]- [E,G,]3 |] %20

